X:2117
T:Ny baarliagh ec Juan dish Cowne
C:Tom Kermode, Bradda 
C:Traditional
O:Isle of Man
Z:Clague collection
B:Kiaull Vannin #117 
M:6/8 
L:1/8
Q:160 
K:D 
F/G/|A2A AAA|A3 G2F|E2E EEE|G3 F2G|A2A ABc|d3 A2B|F2F EEE|D3 -D2:| 

